; Generated G-code
G21
G90
M82

G1 Z195 F3000

; ============================
; ROW 1 (Y=70)
; ============================
G1 X0 Y70 F6000
M118 @POS START

M400
G4 P100
M118 @CAPTURE X0 Y70

G1 X40 F6000
M400
G4 P100
M118 @CAPTURE X40 Y70

G1 X80 F6000
M400
G4 P100
M118 @CAPTURE X80 Y70

G1 X120 F6000
M400
G4 P100
M118 @CAPTURE X120 Y70

G1 X160 F6000
M400
G4 P100
M118 @CAPTURE X160 Y70

G1 X200 F6000
M400
G4 P100
M118 @CAPTURE X200 Y70

G1 X240 F6000
M400
G4 P100
M118 @CAPTURE X240 Y70

G1 X280 F6000
M400
G4 P100
M118 @CAPTURE X280 Y70

G1 X320 F6000
M400
G4 P100
M118 @CAPTURE X320 Y70

; ============================
; ROW 2 (Y=110)
; ============================
G1 X0 Y110 F6000
M400
G4 P100
M118 @CAPTURE X0 Y110

G1 X40 F6000
M400
G4 P100
M118 @CAPTURE X40 Y110

G1 X80 F6000
M400
G4 P100
M118 @CAPTURE X80 Y110

G1 X120 F6000
M400
G4 P100
M118 @CAPTURE X120 Y110

G1 X160 F6000
M400
G4 P100
M118 @CAPTURE X160 Y110

G1 X200 F6000
M400
G4 P100
M118 @CAPTURE X200 Y110

G1 X240 F6000
M400
G4 P100
M118 @CAPTURE X240 Y110

G1 X280 F6000
M400
G4 P100
M118 @CAPTURE X280 Y110

G1 X320 F6000
M400
G4 P100
M118 @CAPTURE X320 Y110

; ============================
; ROW 3 (Y=150)
; ============================
G1 X0 Y150 F6000
M400
G4 P100
M118 @CAPTURE X0 Y150

G1 X40 F6000
M400
G4 P100
M118 @CAPTURE X40 Y150

G1 X80 F6000
M400
G4 P100
M118 @CAPTURE X80 Y150

G1 X120 F6000
M400
G4 P100
M118 @CAPTURE X120 Y150

G1 X160 F6000
M400
G4 P100
M118 @CAPTURE X160 Y150

G1 X200 F6000
M400
G4 P100
M118 @CAPTURE X200 Y150

G1 X240 F6000
M400
G4 P100
M118 @CAPTURE X240 Y150

G1 X280 F6000
M400
G4 P100
M118 @CAPTURE X280 Y150

G1 X320 F6000
M400
G4 P100
M118 @CAPTURE X320 Y150

; ============================
; ROW 4 (Y=190)
; ============================
G1 X0 Y190 F6000
M400
G4 P100
M118 @CAPTURE X0 Y190

G1 X40 F6000
M400
G4 P100
M118 @CAPTURE X40 Y190

G1 X80 F6000
M400
G4 P100
M118 @CAPTURE X80 Y190

G1 X120 F6000
M400
G4 P100
M118 @CAPTURE X120 Y190

G1 X160 F6000
M400
G4 P100
M118 @CAPTURE X160 Y190

G1 X200 F6000
M400
G4 P100
M118 @CAPTURE X200 Y190

G1 X240 F6000
M400
G4 P100
M118 @CAPTURE X240 Y190

G1 X280 F6000
M400
G4 P100
M118 @CAPTURE X280 Y190

G1 X320 F6000
M400
G4 P100
M118 @CAPTURE X320 Y190

; ============================
; END
; ============================
G1 X0 Y70 F6000
